!!!!SEGMENT: pl-kk--kk-i-24--001_anonim--missa-insignis-mater-kyrie.krn
!!!cenid: 17xx:2211
!!!COM: Anonim
!!!COM-rismid: pe30004985
!!!CDT:
!!!CNT:
!!!OPR: Missa Insignis Mater
!!!OTL: Kyrie
!!!OMV: 001
!!!PDT:
!!!AGN: Sacred; Mass
!!!SMS-siglum: PL-Kk
!!!SMS-shelfmark: Kk.I.24
!!!SMS-shelfwork: 001-001 M
!!!SMS-variant:
!!!SMS-altvar:
!!!NIFC-rismid: 1001156018
!!!URL-scan: http://repozytorium.nifc.pl/skany/pl-kk-nut--i-24
!!!ONB-nifc: UWAGA: części Mszy: 1. Kyrie, 2. Et in terra, 3. Sanctus, 4. Agnus Dei.
!!!key:
**kern	**text	**kern	**text	**fba	**kern	**text	**kern	**text	**kern	**text
*part5	*part5	*part4	*part4	*part4	*part3	*part3	*part2	*part2	*part1	*part1
*staff5	*staff5	*staff4	*staff4	*staff4	*staff3	*staff3	*staff2	*staff2	*staff1	*staff1
*>[A,B,A]	*>[A,B,A]	*>[A,B,A]	*>[A,B,A]	*	*>[A,B,A]	*>[A,B,A]	*>[A,B,A]	*>[A,B,A]	*>[A,B,A]	*>[A,B,A]
*>A	*>A	*>A	*>A	*	*>A	*>A	*>A	*>A	*>A	*>A
*Iempty	*	*Iempty	*	*	*Itenor	*	*Ialto	*	*Ivox	*
*I"Baſso Ripieno	*	*I"Baſso.	*	*	*I"Tenore	*	*I"Alto.	*	*I"Canto.	*
*I'B rip	*	*I'B	*	*	*I'T	*	*I'A	*	*I'S	*
*clefF4	*	*clefF4	*	*	*clefC4	*	*clefC3	*	*clefC1	*
*k[b-]	*	*k[b-]	*	*	*k[b-]	*	*k[b-]	*	*k[b-]	*
*B-:	*	*B-:	*	*	*B-:	*	*B-:	*	*B-:	*
*M3/2	*	*M3/2	*	*	*M3/2	*	*M3/2	*	*M3/2	*
=1	=1	=1	=1	=1	=1	=1	=1	=1	=1	=1
*2\right	*	*2\right	*	*	*2\right	*	*2\right	*	*	*
2G\	Ky-	2G\	Ky-	.	2B-\	Ky-	2d\	Ky-	2g/	Ky-
*	*	*	*	*	*	*	*	*	*2\right	*
2G\	-ri-	2G\	-ri-	.	2G/	-ri-	2d\	-ri-	2b-\	-ri-
2F\	-e	2F\	-e	5	2A\	-e	2f\	.	2cc\	-e
=2	=2	=2	=2	=2	=2	=2	=2	=2	=2	=2
4BB-/	e-	4BB-/	e-	.	4B-\	e-	1f	-e	1dd	e-
4C/	.	4C/	.	.	8A/L	.	.	.	.	.
.	.	.	.	.	8G/J	.	.	.	.	.
4D/	.	4D/	.	.	4F/	.	.	.	.	.
4E/	.	4E/	.	.	4G/	.	.	.	.	.
2F\	.	2F\	.	.	2A/	.	2f\	e-	2cc\	.
=3	=3	=3	=3	=3	=3	=3	=3	=3	=3	=3
1G	.	1G	.	.	4B-\	.	2d\	.	2.b-\	.
.	.	.	.	.	4A\	.	.	.	.	.
.	.	.	.	.	2.G/	.	2.g\	.	.	.
.	.	.	.	.	.	.	.	.	4b-\	.
2C/	.	2C/	.	.	.	.	.	.	2cc\	.
.	.	.	.	.	4A/	.	4g\	.	.	.
=4	=4	=4	=4	=4	=4	=4	=4	=4	=4	=4
2FF/	.	2FF/	.	.	4B-\	.	1g	-lei-	2b-\	ley-
.	.	.	.	.	4c\	.	.	.	.	.
1D	-lei-	1D	-lei-	.	2d\	-lei-	.	.	1a	.
.	.	.	.	.	2A\	.	2f#X\	.	.	.
=5	=5	=5	=5	=5	=5	=5	=5	=5	=5	=5
1.GG	-son	1.GG	-son	.	1.Bn,<	-son,	1.g,<	-son	1.g,<	-son,
=6	=6	=6	=6	=6	=6	=6	=6	=6	=6	=6
2G\	Ky-	2G\	Ky-	.	1d	Ky-	2g\	Ky-	2g\	Ky-
2G\	-ri-	2G\	-ri-	.	.	.	2g\	-ri-	2dd\	-ri-
2En\	-e	2En\	-e	6|	2c#X\	-ri-	2g\	-e	2een\	-e
=7	=7	=7	=7	=7	=7	=7	=7	=7	=7	=7
4D\	e-	4D\	e-	.	1d	-e	4fn\	e-	1ff	e-
4E\	.	4E\	.	.	.	.	4g\	.	.	.
4F\	.	4F\	.	.	.	.	2.a\	.	.	.
4G\	.	4G\	.	.	.	.	.	.	.	.
2A\	.	2A\	.	#	2c#X\	e-	.	.	2ee\	.
.	.	.	.	.	.	.	4g\	.	.	.
=8	=8	=8	=8	=8	=8	=8	=8	=8	=8	=8
4B-\	.	4B-X\	.	.	4d\	.	2f\	.	1dd	.
4A\	.	4A\	.	.	4c\	.	.	.	.	.
4G\	.	4G\	.	.	4B-\	.	1g	.	.	.
4F\	.	4F\	.	.	4A\	.	.	.	.	.
2E\	.	2E\	.	.	2G/	.	.	.	2een\	.
=9	=9	=9	=9	=9	=9	=9	=9	=9	=9	=9
2D\	.	2D\	.	.	2A\	.	4f\	lei-	2ff\	-lei-
.	.	.	.	.	.	.	4a\	.	.	.
2G\	-lei-	2G\	-lei-	.	2B-\	.	4g\	.	1eent	.
.	.	.	.	.	.	.	4f\	.	.	.
2A\	.	2A\	.	.	2A\	-lei-	2e\	.	.	.
!	!	!	!	!	!LO:LB:g=original	!	!	!	!	!
=10	=10	=10	=10	=10	=10	=10	=10	=10	=10	=10
!	!	!	!	!	!	!	!LO:SIC:v:t=custos a	!	!	!
1.D	-son.	1.D	-son.	.	1.A,<	-son.	1.f#X,<	-son,	1.dd,<	-son
!	!	!LO:LB:g=original	!	!	!	!	!LO:LB:g=original	!	!	!
=11	=11	=11	=11	=11	=11	=11	=11	=11	=11	=11
2.D/	Ky-	2.D/	Ky-	.	2.A/	Ky-	2a\	Ky-	2.ff\	Ky-
.	.	.	.	.	.	.	2a\	-ri-	.	.
4AA/	-ri-	4AA/	-ri-	.	4A/	-ri-	.	.	4ee-X\	-ri-
2BB-/	-e	2BB-/	-e	.	2D/	-e	2fn\	-e	2dd\	-e
!	!	!	!	!	!	!	!	!	!LO:LB:g=original	!
=12	=12	=12	=12	=12	=12	=12	=12	=12	=12	=12
1F	e-	1F	e-	.	4A\	e-	1f	e-	1cc	e-
.	.	.	.	.	4B-\	.	.	.	.	.
.	.	.	.	.	2c\	.	.	.	.	.
2BB-/	.	2BB-/	.	.	2d\	.	2f\	.	2b-\	.
!LO:LB:g=original	!	!	!	!	!	!	!	!	!	!
=13	=13	=13	=13	=13	=13	=13	=13	=13	=13	=13
2.F\	-lei-	2.F\	.	.	1c	.	1f	.	(4cc\	.
.	.	.	.	.	.	.	.	.	4b-\	.
.	.	.	.	.	.	.	.	.	4cc\	.
4D/	.	4D/	.	.	.	.	.	.	4dd\)	.
2C/	.	2C/	.	.	2c\	.	2e-X\	.	2ee-X\	.
=14	=14	=14	=14	=14	=14	=14	=14	=14	=14	=14
2D\	.	2D\	.	.	2F/	.	2f\	.	2dd\	-lei-
2E-X\	.	2E-X\	-lei-	.	2c\	-lei-	2g\	-lei-	1cc	.
2F\	.	2F\	.	.	2c\	.	2f\	.	.	.
=15	=15	=15	=15	=15	=15	=15	=15	=15	=15	=15
1.BB-	-son	1.BB-	-son	.	1.d,<	-son	1.f,<	-son	1.b-,<	-son
=16	=16	=16	=16	=16	=16	=16	=16	=16	=16	=16
*	*ij	*	*	*	*	*	*	*	*	*
1F	e-	1F	e-	.	1A	e-	1f	e-	1cc	e-
2BB-/	.	2BB-/	.	.	2B-\	.	2f\	.	2dd\	.
=17	=17	=17	=17	=17	=17	=17	=17	=17	=17	=17
2GG/	.	2GG/	.	.	2B-\	.	1g	-lei-	2b-\	-lei-
1D	-lei-	1D	-lei-	.	1d	-lei-	.	.	1a	.
.	.	.	.	.	.	.	2f#X\	.	.	.
=18	=18	=18	=18	=18	=18	=18	=18	=18	=18	=18
1.GGl;	-son	1.GG	-son	.	1.d	-son.	1.g	-son.	1.g	-son.
*	*Xij	*	*	*	*	*	*	*	*	*
=19||	=19||	=19||	=19||	=19||	=19||	=19||	=19||	=19||	=19||	=19||
*>B	*>B	*>B	*>B	*	*>B	*>B	*>B	*>B	*>B	*>B
*M3/2	*	*M3/2	*	*	*M3/2	*	*M3/2	*	*M3/2	*
2C/	Chri-	2C/	Chri-	.	00.r	.	1.r	.	2cc\	Chri-
2E-X\	-ste	2.E-X\	-ste	.	.	.	.	.	2.g\	-ste
2F\	.	.	.	.	.	.	.	.	.	.
.	.	4F\	.	.	.	.	.	.	4a\	.
=20	=20	=20	=20	=20	=20	=20	=20	=20	=20	=20
4G\	e-	4G\	e-	.	.	.	2d\	Chri-	2dd\	e-
8F\L	.	8F\L	.	.	.	.	.	.	.	.
8E-X\J	.	8E-X\J	.	.	.	.	.	.	.	.
2.D\	.	2.D\	.	.	.	.	2.f\	-ste	1b-	.
4E-\	.	4E-\	.	.	.	.	4g\	e-	.	.
=21	=21	=21	=21	=21	=21	=21	=21	=21	=21	=21
1.F	-lei-	1.F	-lei-	.	.	.	2a\	-lei-	2ff\	.
.	.	.	.	.	.	.	2A/	-ſon	2.cc\	.
.	.	.	.	.	.	.	2r	.	.	.
.	.	.	.	.	.	.	.	.	4dd\	.
=22-	=22	=22	=22	=22	=22	=22	=22	=22	=22	=22
1.C,<	-son	1.C	-son	.	.	.	2c/	X-	1.ee-X	-lei-
.	.	.	.	.	.	.	2.G/	-te	.	.
.	.	.	.	.	.	.	4A/	.	.	.
!	!	!LO:LB:g=original	!	!	!	!	!LO:LB:g=original	!	!	!
=23	=23	=23	=23	=23	=23	=23	=23	=23	=23	=23
2GG/	X-	2GG/	x-	.	1.r	.	4B-/	e-	1.dd,<	-son
.	.	.	.	.	.	.	4c/	.	.	.
2.BB-/	-te	2.BB-/	-te	.	.	.	2.d\	.	.	.
4C/	.	4C/	.	.	.	.	4e\	.	.	.
=24	=24	=24	=24	=24	=24	=24	=24	=24	=24	=24
1D	e-	1D	e-	.	2D/	Chri-	1f	.	2dd\	Chri-
.	.	.	.	.	2.F/	-ste	.	.	2.a\	.
[2AA/	.	2AA/	.	.	.	.	2f\	.	.	.
!	!	!	!	!	!	!	!	!	!LO:SIC:v:t=custos cc	!
.	.	.	.	.	4G/	.	.	.	4b-\	-ste
!	!	!	!	!	!	!	!	!	!LO:LB:g=original	!
=25	=25	=25	=25	=25	=25	=25	=25	=25	=25	=25
2AA/]	.	2AA/	.	.	2A/	e-	2f\	.	2.cc\	e-
1C	.	1C	.	.	4G/	.	1e	.	.	.
.	.	.	.	.	4F/	.	.	.	8b-\L	.
.	.	.	.	.	.	.	.	.	8a\J	.
.	.	.	.	.	4E/	.	.	.	4g\	.
.	.	.	.	.	4F/	.	.	.	4a\	.
!	!	!	!	!	!LO:LB:g=original	!	!	!	!	!
=26	=26	=26	=26	=26	=26	=26	=26	=26	=26	=26
1GG	.	1GG	.	.	1G	.	4d\	.	2g\	.
.	.	.	.	.	.	.	8e\L	.	.	.
.	.	.	.	.	.	.	8f\J	.	.	.
.	.	.	.	.	.	.	2g\	.	2b-\	.
2AA/	.	2AA/	.	.	2C/	-lei-	4f\	.	2cc\	.
.	.	.	.	.	.	.	4e\	.	.	.
=27	=27	=27	=27	=27	=27	=27	=27	=27	=27	=27
4BB-/	.	4BB-/	.	.	1F,<	-son	4d\	.	1dd	.
4C/	.	4C/	.	.	.	.	4e\	.	.	.
4D/	.	4D/	.	.	.	.	4f\	.	.	.
4E/	.	4E\	.	.	.	.	4g\	.	.	.
2F\	.	2F\	.	.	2F/	X-	2a\	.	2cc\	.
=28	=28	=28	=28	=28	=28	=28	=28	=28	=28	=28
4G\	.	4G\	.	.	4B-\	-te	4d\	.	1b-	.
4F\	.	4F\	.	.	4A\	.	8e\L	.	.	.
.	.	.	.	.	.	.	8f\J	.	.	.
4E-X\	.	4E-X\	.	.	1G	e-	4g\	.	.	.
4D\	.	4D\	.	.	.	.	4f\	.	.	.
2C/	.	2C/	.	.	.	.	2e-X\	.	2cc\	.
=29	=29	=29	=29	=29	=29	=29	=29	=29	=29	=29
2GG/	-lei-	2GG/	.	.	1G	-lei-	2d\	.	2b-\	-lei-
1D	.	1D	-lei-	.	.	.	1d	-lei-	1a	.
.	.	.	.	.	2F#X/	.	.	.	.	.
=30	=30	=30	=30	=30	=30	=30	=30	=30	=30	=30
1.GG	-son	1.GG	-son	.	1.G	-son.	1.d	-son.	1.g,<	-son
!LO:LB:g=original	!	!	!	!	!	!	!	!	!	!
=31	=31	=31	=31	=31	=31	=31	=31	=31	=31	=31
*	*ij	*	*	*	*	*	*	*	*	*
1G	X-	1G	x-	.	0.r	.	00.r	.	2g\	Chri-
.	.	.	.	.	.	.	.	.	2dd\	.
2G\	-te	2G\	-te	.	.	.	.	.	2een\	-ste
*	*Xij	*	*	*	*	*	*	*	*	*
=32	=32	=32	=32	=32	=32	=32	=32	=32	=32	=32
*	*	*	*ij	*	*	*	*	*	*	*
2D\	X-	2D\	x-	.	.	.	.	.	2ff\	e-
2G\	-te	2G,<\	-te	.	.	.	.	.	1een	.
*	*	*	*Xij	*	*	*	*	*	*	*
2A\	e-	2A\	e-	.	.	.	.	.	.	.
=33	=33	=33	=33	=33	=33	=33	=33	=33	=33	=33
4B-\	.	4B-\	.	.	2G/	Chri-	.	.	1dd	.
4A\	.	4A\	.	.	.	.	.	.	.	.
4G\	.	4G\	.	.	2d\	-ste	.	.	.	.
4F\	.	4F\	.	.	.	.	.	.	.	.
2En\	.	2En\	.	.	2en\	e-	.	.	2cc#X\	.
=34	=34	=34	=34	=34	=34	=34	=34	=34	=34	=34
2D\	.	2D\	.	.	2f\	-lei-	.	.	1dd	-lei-
(2G\	-lei-	2G\	-lei-	.	1e	.	.	.	.	.
2A\)	.	2A\	.	.	.	.	.	.	2cc#Xt\	.
!	!	!LO:LB:g=original	!	!	!	!	!	!	!	!
=35	=35	=35	=35	=35	=35	=35	=35	=35	=35	=35
1.D	-son	1.D	-son	.	1.d	-son	1.r	.	1.dd,<	-son
=36	=36	=36	=36	=36	=36	=36	=36	=36	=36	=36
*	*ij	*	*	*	*	*	*	*	*	*
2D/	X-	2D/	x-	.	(2.d\	Chri-	2a\	Chri-	2.ff\	Chri-
2AA/	-te	2AA/	-te	.	.	.	2a\	-ste	.	.
.	.	.	.	.	4c\)	.	.	.	4ee-X\	.
!	!	!	!	!	!	!	!LO:SIC:v:t=custos f	!	!	!
2BB-/	e-	2BB-/	e-	.	2B-\	.	2f\	e-	2dd\	.
!	!	!	!	!	!	!	!LO:LB:g=original	!	!	!
=37	=37	=37	=37	=37	=37	=37	=37	=37	=37	=37
1F	-lei-	1F	.	.	1A,<	ste	1f	-lei-	1cc	-ste
2BB-,</	-son	2BB-/	.	.	2B-\	e-	2f,<\	-son	2b-\	e-
*	*Xij	*	*	*	*	*	*	*	*	*
!	!	!	!	!	!	!	!	!	!LO:LB:g=original	!
=38	=38	=38	=38	=38	=38	=38	=38	=38	=38	=38
2.F\	e-	2.F\	.	.	4A/	.	2.f\	X-	(4cc\	.
.	.	.	.	.	4G/	.	.	.	4b-\	.
.	.	.	.	.	4A/	.	.	.	4cc\	.
8E-X\L	.	8E-X\L	.	.	4B-/	.	4f\	-te	4dd\)	.
8D\J	.	8D\J	.	.	.	.	.	.	.	.
!	!	!	!	!	!LO:SIC:v:t=custos B-	!	!	!	!	!
2C/	.	2C/	.	.	2c\	.	2e-X\	e-	2ee-X\	.
!	!	!	!	!	!LO:LB:g=original	!	!	!	!	!
=39	=39	=39	=39	=39	=39	=39	=39	=39	=39	=39
2D\	.	2D\	.	.	2B-\	.	2f\	.	2dd\	-lei-
2E-X\	.	2E-X\	.	.	2B-\	-lei-	2g\	.	1cc	.
2F\	.	2F\	.	.	2A\	.	2f\	.	.	.
=40	=40	=40	=40	=40	=40	=40	=40	=40	=40	=40
4B-\	.	4B-\	.	.	1B-,	-son	2B-/	.	1.b-,<	-son
4A\	.	4A\	.	.	.	.	.	.	.	.
4G\	.	4G\	.	.	.	.	4d\	.	.	.
4F\	.	4F\	.	.	.	.	8e-X\L	.	.	.
.	.	.	.	.	.	.	8f\J	.	.	.
4E-X\	.	2E-X\	.	.	4B-\	e-	4g\	.	.	.
4D\	.	.	.	.	8c\L	.	4f\	.	.	.
.	.	.	.	.	8d\J	.	.	.	.	.
=41	=41	=41	=41	=41	=41	=41	=41	=41	=41	=41
4C/	.	4C/	.	.	4e-X\	.	2e-X\	.	1cc	Chri-
8D/L	.	8D/L	.	.	4d\	.	.	.	.	.
!	!	!LO:SIC:v:s=8E-/J	!	!	!	!	!	!	!	!
8E-X/J	.	8E/J	.	.	.	.	.	.	.	.
4F/	.	4F\	.	.	2c\	.	1f	.	.	.
4E-/	.	4E-X\	.	.	.	.	.	.	.	.
2D\	.	2D\	.	.	2B-\	.	.	.	2dd\	ste
=42	=42	=42	=42	=42	=42	=42	=42	=42	=42	=42
2E-X\	.	2E-X\	.	.	2B-\	.	1e-X	-lei-	2b-\	e-
2C/	-lei-	2C/	-lei-	.	2c\	-lei-	.	.	1a	-lei-
2D\	.	2D\	.	.	2A\	.	2d\	.	.	.
=43	=43	=43	=43	=43	=43	=43	=43	=43	=43	=43
!LO:TX:b:t=Kyrie ut\n Supra	!	!LO:TX:b:t=Kyrie\nut Supra	!	!	!LO:TX:b:t=Kyrie ut Supra	!	!LO:TX:b:t=Kyrie ut Supra	!	!LO:TX:b:t=Kyrie ut Supra	!
1.GG	-son.	1.GG	-son.	.	1.Bn	-son.	1.d	-son.	1.g	-son.
==	==	==	==	==	==	==	==	==	==	==
*-	*-	*-	*-	*-	*-	*-	*-	*-	*-	*-
!!!system-decoration: [(s1,s2,s3,s4)]s5
!!!RDF**kern: > = above
!!!RDF**kern: < = below
!!!RDF**kern: l = terminal long
!!!AIN: 1 alto 2 empty 1 tenor 1 vox
!!!ENC: Andrzej Kubiczek
!!!END: 2021-07-21
!!!ENC: Krzysztof Stępień
!!!END: 2021-07-01
